src/vectors/trash.svg

<svg id="Layer_1" data-name="Layer 1" xmlns="http://www.w3.org/2000/svg" viewBox="0 0 300 300"><defs><style>.cls-1{fill-rule:evenodd;}</style></defs><title>FontTristan</title><path class="cls-1" d="M249.8464,109.6823V244.5258a13.4906,13.4906,0,0,1-13.487,13.4844H74.5156a13.4906,13.4906,0,0,1-13.487-13.4844V109.6823H47.5417V96.1979a13.4906,13.4906,0,0,1,13.487-13.4844h53.9479V55.7448A13.4905,13.4905,0,0,1,128.4635,42.26h53.9479a13.4905,13.4905,0,0,1,13.487,13.4843V82.7135h53.9479a13.4906,13.4906,0,0,1,13.487,13.4844v13.4844h-13.487ZM141.9505,82.7135h26.974V69.2292h-26.974V82.7135ZM88.0026,231.0415h134.87V109.6823H88.0026V231.0415Zm26.974-26.9687h26.974V136.651h-26.974v67.4218Zm53.9479,0h26.974V136.651h-26.974v67.4218Z"/></svg>

<?xml version="1.0" encoding="utf-8"?>
<!-- Generator: Adobe Illustrator 19.2.1, SVG Export Plug-In . SVG Version: 6.00 Build 0)  -->
<svg version="1.1" id="Layer_1" xmlns="http://www.w3.org/2000/svg" xmlns:xlink="http://www.w3.org/1999/xlink" x="0px" y="0px"
	 viewBox="0 0 300 300" style="enable-background:new 0 0 300 300;" xml:space="preserve">
<style type="text/css">
	.st0{fill-rule:evenodd;clip-rule:evenodd;}
</style>
<path class="st0" d="M249.8,109.7v134.8c0,7.4-6,13.5-13.5,13.5H74.5c-7.4,0-13.5-6-13.5-13.5V109.7H47.5V96.2
	c0-7.4,6-13.5,13.5-13.5h13.5H88h27v-27c0-7.4,6-13.5,13.5-13.5h53.9c7.4,0,13.5,6,13.5,13.5v27h27h13.5h13.5
	c7.4,0,13.5,6,13.5,13.5v13.5H249.8z M142,82.7h27V69.2h-27V82.7z M88,231h134.9V109.7H88V231z M115,204.1h27v-67.4h-27V204.1z
	 M168.9,204.1h27v-67.4h-27V204.1z"/>
<g>
	<defs>
		<rect id="SVGID_1_" x="-8136" y="-3250.4" width="15094.6" height="11550.3"/>
	</defs>
	<clipPath id="SVGID_2_">
		<use xlink:href="#SVGID_1_"  style="overflow:visible;"/>
	</clipPath>
</g>
<g>
	<defs>
		<rect id="SVGID_3_" x="-8136" y="-3250.4" width="15094.6" height="11550.3"/>
	</defs>
	<clipPath id="SVGID_4_">
		<use xlink:href="#SVGID_3_"  style="overflow:visible;"/>
	</clipPath>
</g>
</svg>
